src/lib/packages/icons/src/assets/line/more-vertical-square.svg

<svg xmlns="http://www.w3.org/2000/svg" width="24" height="24" fill="none"><path fill="currentColor" d="M17.625 21.75H6.375c-2.66 0-4.125-1.465-4.125-4.125V6.375c0-2.66 1.465-4.125 4.125-4.125h11.25c2.66 0 4.125 1.465 4.125 4.125v11.25c0 2.66-1.465 4.125-4.125 4.125Zm-11.25-18c-1.84 0-2.625.785-2.625 2.625v11.25c0 1.84.785 2.625 2.625 2.625h11.25c1.84 0 2.625-.785 2.625-2.625V6.375c0-1.84-.785-2.625-2.625-2.625H6.375ZM13.271 8c0-.69-.56-1.25-1.25-1.25h-.01c-.69 0-1.245.56-1.245 1.25s.564 1.25 1.255 1.25 1.25-.56 1.25-1.25Zm0 4c0-.69-.56-1.25-1.25-1.25h-.01c-.69 0-1.245.56-1.245 1.25s.564 1.25 1.255 1.25 1.25-.56 1.25-1.25Zm0 4c0-.69-.56-1.25-1.25-1.25h-.01c-.69 0-1.245.56-1.245 1.25s.564 1.25 1.255 1.25 1.25-.56 1.25-1.25Z"/></svg>

<svg width="24" height="24" viewBox="0 0 24 24" fill="none" xmlns="http://www.w3.org/2000/svg">
<path d="M17.625 21.75H6.375C3.715 21.75 2.25 20.285 2.25 17.625V6.375C2.25 3.715 3.715 2.25 6.375 2.25H17.625C20.285 2.25 21.75 3.715 21.75 6.375V17.625C21.75 20.285 20.285 21.75 17.625 21.75ZM6.375 3.75C4.535 3.75 3.75 4.535 3.75 6.375V17.625C3.75 19.465 4.535 20.25 6.375 20.25H17.625C19.465 20.25 20.25 19.465 20.25 17.625V6.375C20.25 4.535 19.465 3.75 17.625 3.75H6.375ZM13.271 8C13.271 7.31 12.711 6.75 12.021 6.75H12.011C11.321 6.75 10.766 7.31 10.766 8C10.766 8.69 11.33 9.25 12.021 9.25C12.712 9.25 13.271 8.69 13.271 8ZM13.271 12C13.271 11.31 12.711 10.75 12.021 10.75H12.011C11.321 10.75 10.766 11.31 10.766 12C10.766 12.69 11.33 13.25 12.021 13.25C12.712 13.25 13.271 12.69 13.271 12ZM13.271 16C13.271 15.31 12.711 14.75 12.021 14.75H12.011C11.321 14.75 10.766 15.31 10.766 16C10.766 16.69 11.33 17.25 12.021 17.25C12.712 17.25 13.271 16.69 13.271 16Z" fill="currentColor"/>
</svg>
